X:6650
T:Vitter Lt
A:Jmtland
M:3/4
O:Sweden
R:Polska
Z:Richard Robinson 
%%TUNEURL: http://www.leeds.ac.uk/music/Info/RRTuneBk/gettune/0000081e.html
%%ID:0000081e
K:D min
AF DF (3EFE|D^C DE FG|(3A=B^c de fd \
|1 ed (3^cdc A2 :|2 (3ed^c d4 ::\
a>e f>e f>g|a>g e>f (3gfg|\
a>e f>e f>g|a>g e>f (3gfg|\
(3fgf (3efe (3ded|(3BcB (3ABA (3GAG|\
(3FGF (3EFE D^C|^C<D D4:|
